X:362
T:John McAlpin
R:Strathspey
B:The Athole Collection
M:C
L:1/8
K:A
c2 c>B A<FF>A|E>FA>B cA|c2 cB A<FF>A|E>Ae>c B2A2:|
||d|c>ee>f e>fa>f|e>cc>a e>cB2|c>ee>f e>fa>f|e<cc>A B2A>d|
c<ee>f e>fa>f|e>cc>a e>c B2|(3cde e>f (3efg a>f|(3edc c>A B2A|]
